!!!COM: david-bowie
!!!OTL: fantastic-voyage
!!!RNB: hooktheoryid: dJNgqwwJorz
**kern	**text
*clefG2	*
*k[f#c#]	*
*M4/4	*
=1	=1
1r	D
=2	=2
8a	.
8a	.
8b	.
8a	.
4r	.
8a	.
8f#	.
=3	=3
8g#	E
8g#	.
8a	.
4.g#	.
4r	.
=4	=4
2..r	.
8f#	.
=5	=5
8g	A#
8g	.
8g	.
4a	.
4.g	.
=6	=6
2.r	.
8g	.
8g	.
=7	=7
8a	D
8g	.
8f#	.
8d	.
2r	.
=8	=8
4.r	.
8f#	.
8a	.
8a	.
4b	.
=9	=9
4e	E
2.r	.
=10	=10
4e	.
8e	.
4.e	.
4f#	.
=11	=11
8f	A#
8d	.
8d	.
4d	.
4r	.
8d	.
=12	=12
8.f	.
8.e	.
8d	.
8.f	.
8.e	.
8d	.
=13	=13
4.f#	D
2a	.
8a	.
=14	=14
1dd	.
=15	=15
1r	.
*-	*-